!!!!SEGMENT: 008-1c-KI-001-violoncello.krn
!!!COM: [Chopin, Fryderyk]
!!!OTL: Premier Trio pour Piano, Violon et Violoncelle
!!!OPS: Op. 8
!!!PPR: Kistner
!!!PPP: Leipzig
!!!NIFC-rismID: 1001002848
!!!NIFC-shelfmark: PL-Wbfc 3997/n
!!!OMD: ALLEGRO CON FUOCO.
**kern	**fing	**dynam
*part2	*	*part2
*I"1er | TRIO.	*	*
*staff2	*	*
*clefF4	*	*
*k[b-e-]	*	*
*g:	*	*
*M2/2	*	*
*met(c|)	*	*
*>[A,B,B,C1,A,B,B,C2,D]	*	*>[A,B,B,C1,A,B,B,C2,D]
=1	=1	=1
*>A	*	*>A
!LO:TX:b:Bi:t=risoluto.	!	!LO:DY:rj
2GG	.	f
4AA'<	.	.
4BB-'<	.	.
=2	=2	=2
4C'<	.	.
4BB-'<	.	.
2r	.	.
=3	=3	=3
1rF	.	.
=4	=4	=4
1rF	.	.
=5	=5	=5
(>2A	.	>
2G	.	.
=6	=6	=6
2F#X)	.	]
2r	.	.
=7	=7	=7
!LO:TX:t=P:znak pionowy i poziomy w takcie:problem	!	!
1rF	.	.
=8	=8	=8
1rF	.	.
=9	=9	=9
1rF	.	.
=10	=10	=10
!LO:TX:b:Bi:t=espress.	!	!
(>4G	.	.
4c	.	.
4G	.	.
4d	.	.
=11	=11	=11
2e-	.	>
4d	.	.
8cL	.	.
8B-J	.	]]
=12	=12	=12
4.G	.	]
16ALL	.	.
16B-JJ	.	.
!	!	!LO:DY:rj
4F#X)	.	p
*clefC4	*	*
4d	.	.
!!LO:LB:g=original
=13	=13	=13
4G	.	<
[>4g	.	.
.	.	.
8gL]	.	[
8f	.	>
8e-	.	.
8dJ	.	]
=14	=14	=14
8fL	.	]
8e-J	.	.
4r	.	.
!LO:TX:t=P:diminuendolike accent:problem	!	!
2Bn^<t>	.	.
16qqA/LL	.	.
16qqB/JJ	.	.
=15	=15	=15
(>4c	.	<
8dL	.	.
8e-J	.	[
4d	.	>
4c	.	]
=16	=16	=16
4B-)	.	.
(>8.GL<	.	.
16AJk	.	.
4B-	.	>
4A	.	]]
=17	=17	=17
2G)	.	p
*clefF4	*	*
(</2D	.	.
=18	=18	=18
2C	.	.
2BB-	.	.
=19	=19	=19
2AA	.	.
2GG)	.	.
=20	=20	=20
2DD	.	.
(</2D	.	.
=21	=21	=21
2BBn	.	.
2C	.	.
!!LO:LB:g=original
=22	=22	=22
2D	.	.
2E-)	.	.
=23	=23	=23
(<2FF#X	.	.
2GG)	.	.
=24	=24	=24
(<2C	.	>
2BB-)	.	]]
=25	=25	=25
(>\2C	.	]
2D\	.	.
=26	=26	=26
4E-X)	.	.
4r	.	.
(2FF#X	.	.
=27	=27	=27
2GG)	.	.
(<2C#X	.	.
=28	=28	=28
2D/)	.	.
(2DD	.	.
=29	=29	=29
8GG)	.	.
8r	.	.
4r	.	.
(2D^<	.	.
=30	=30	=30
8G)	.	.
8r	.	.
4r	.	.
(2D	.	.
=31	=31	=31
8G)	.	.
8r	.	.
(>4G	.	.
8C/)	.	.
8r	.	.
(<4CC	.	.
=32	=32	=32
4DD)	.	.
2D	.	.
(>4d	.	.
=33	=33	=33
4G)	.	.
4r	.	.
(>2F	.	.
!!LO:LB:g=original
=34	=34	=34
4BB-)	.	.
4r	.	.
(>2F	.	.
=35	=35	=35
4BB-)	.	.
(>4B-	.	.
4A)	.	.
(<4FF#X	.	.
=36	=36	=36
4GG)	.	.
4r	.	.
2E-^<	.	.
=37	=37	=37
1C	.	.
=38	=38	=38
4E-: 4AA-X: 4CC:	.	.
4r	.	]
4r	.	.
8CC`<L	.	.
8CC#X`<J	.	.
=39	=39	=39
8DD`<	.	.
8r	.	.
4r	.	.
!	!	!LO:DY:rj
(>2E-	.	p
=40	=40	=40
8D)	.	.
8r	.	.
4r	.	.
*clefC4	*	*
(>2e-	.	.
=41	=41	=41
8d)	.	.
8r	.	.
4r	.	.
*clefG2	*	*
(>2ee-	.	.
=42	=42	=42
8dd)	.	.
8r	.	.
4r	.	.
2r	.	.
*clefF4	*	*
!!LO:LB:g=original
=43	=43	=43
4.G	.	.
8C#X	.	.
8D/	.	.
8r	.	.
8r	.	.
(<8FF#X	.	.
=44	=44	=44
8GG)	.	.
8r	.	.
8r	.	.
(<8C#X	.	.
8D/)	.	.
8r	.	.
8r	.	.
(<8FF#X	.	.
=45	=45	=45
4GG)	.	.
4BB-`<	.	.
4C`<	.	.
4r	.	.
=46	=46	=46
4D	.	.
4r	.	.
4F#X: 4AA: 4DD:	.	.
8.DL	.	.
16DJk	.	.
=47	=47	=47
(>16GGLL<	.	<
16BB-	.	.
16D	.	.
16F#XJJ	.	[
16GLL	.	>
16B-	.	.
16A	.	.
16GJJ	.	]
16F#X`>^<LL)	.	.
16A	.	.
16E-`>^<	.	.
16AJJ	.	.
16D`>^<LL	.	.
16A	.	.
16C`>^<	.	.
16AJJ	.	.
!!LO:LB:g=original
=48	=48	=48
16BB-LL	.	<
16GG	.	.
16BB-	.	.
16DJJ	.	.
.	.	[
16GLL	.	.
16B-	.	.
16A	.	.
16GJJ	.	.
16F#X^<LL	.	.
16A	.	.
16E-^<	.	.
16AJJ	.	.
(>16D^<LL	.	.
16A	.	.
16d	.	.
16cJJ	.	.
=49	=49	=49
16B-LL	.	.
16A	.	.
16G	.	.
16F#XJJ	.	.
16GLL	.	.
16Fn	.	.
16E-	.	.
16DJJ	.	.
16CLL	.	.
16BBn	.	.
16C	.	.
16DJJ	.	.
16E-LL	.	.
16G	.	.
16c	.	.
16e-JJ)	.	.
=50	=50	=50
8en	.	.
8r	.	.
*clefC4	*	*
8c#X^>L	.	.
8en^>	.	.
8g^>J	.	.
8a	.	.
4b-^<	.	.
*clefF4	*	*
!!LO:LB:g=original
=51	=51	=51
4r	.	.
!LO:TX:b:Bi:t=con forza.	!	!
(>4D	.	.
.	.	<
4G	.	.
4B-	.	[
*clefC4	*	*
=52	=52	=52
*	*	*^
4d	.	.	.
4g^<	.	.	.
8d)	.	.	.
8r	.	.	.
*clefF4	*	*	*
!	!	!LO:DY:rj:a	!LO:DY:a
4F#X: 4AA: 4DD:	.	fz	p
.	.	.	.
*	*	*v	*v
=53	=53	=53
*>B	*	*>B
4GG	.	.
!	!	!LO:DY:rj
(<4BB-	.	p<
4C	.	.
4D/)	.	[
=54	=54	=54
4GG	.	.
(<4BB-	.	.
4C	.	.
4D/)	.	.
=55	=55	=55
*>C	*	*>C
(>4En	.	[
4F#X	.	.
4G	.	.
4E-X	.	.
=56	=56	=56
4C\	.	.
4C#X\	.	.
4D	.	.
4DD)	.	.
=57	=57	=57
(<8.GGL	.	.
16AAJk	.	.
4BB-	.	.
4C	.	.
4D/)	.	.
=58	=58	=58
(<8.GGL	.	.
16AAJk	.	.
4BB-	.	.
4C	.	.
4D/)	.	.
!!LO:LB:g=original
=59	=59	=59
(>4En	.	<
4F#X	.	[
8GL	.	>
8Fn	.	.
8E-X	.	.
8DJ)	.	]
=60	=60	=60
!LO:TX:a:Bi:t=poco rit.	!	!
4C	.	.
4C#X	.	.
2D^<	.	.
=61	=61	=61
!LO:TX:a:Bi:t=Tempo 1º.	!	!
4E-	.	<
4G	.	[
4A-X	.	.
8FL	.	>
8DJ	.	]
=62	=62	=62
4BB-	.	[
(>4E-	.	.
4BB-)	.	.
(>4F	.	.
=63	=63	=63
4BB-)	.	.
.	.	<
(>4G	.	.
4A-X)	.	[
16qqB-/LL	.	.
16qqA-/JJ	.	.
8GL	.	.
8A-J	.	.
*clefC4	*	*
=64	=64	=64
(>4B-	.	.
4e-	.	.
.	.	<
4B-	.	.
4f	.	.
.	.	[
=65	=65	=65
4g	.	>
4e-)	.	]
*clefF4	*	*
(>4G	.	.
4c	.	.
=66	=66	=66
4B-	.	<
4Bn	.	.
4c)	.	[
(>4D	.	.
!!LO:LB:g=original
=	=	=
!LO:N:vis=4	!	!
8GG)	.	.
(>8GL	.	.
8cJ	.	.
!	!	!LO:DY:rj
8B-)	.	>f
4G	.	]
(8c	.	.
=67	=67	=67
*	*	*^
8B-L)	.	.	.
(>8A	.	.	.
8G	.	<	.
8cJ	.	.	.
8B-L	.	.	.
8A	.	.	<
8B-	.	.	.
8cJ	.	[	.
*	*	*v	*v
=68	=68	=68
4d)	.	.
4r	.	.
2r	.	.
=69	=69	=69
2r	.	.
4r	.	.
[>4D	.	.
=70	=70	=70
4D]	.	.
(>4G	.	.
4D)	.	.
(>4A	.	.
=71	=71	=71
4B-)	.	.
4r	.	.
(<2DD	.	.
=72	=72	=72
4GG)	.	.
[>4d^>	.	.
!LO:TX:a:t=P:note-head-side tuplet number:problem	!	!
(12dL]	.	>
12G	.	.
12dJ)	.	.
!LO:TX:a:t=P:note-head-side tuplet number:problem	!	!
(12dL	.	]
12D	.	.
12cJ)	.	.
=73	=73	=73
!LO:TX:a:t=P:note-head-side tuplet number:problem	!	!
(12B-L	.	.
12G	.	.
12B-J)	.	.
[>4d^>	.	.
!LO:TX:a:t=P:note-head-side tuplet number:problem	!	!
(12dL]	.	.
12D	.	.
12dJ)	.	.
!LO:TX:a:t=P:note-head-side tuplet number:problem	!	!
(12dL	.	.
12D	.	.
12cJ)	.	.
!!LO:LB:g=original
=74	=74	=74
4B-	.	.
4r	.	.
(2GG^<	.	.
=75	=75	=75
!!LO:TX:a:i:Bi:t=1º.
*>C1	*	*>C1
4FF#X)	.	.
4r	.	.
2r	.	.
=76	=76	=76
2BBn	.	.
2C	.	.
=77	=77	=77
1D	.	.
=78:|!	=78:|!	=78:|!
!!LO:TX:a:i:Bi:t=2º.
*>C2	*	*>C2
1FF#X	.	.
=79	=79	=79
1FFn	.	.
=80	=80	=80
1EEn	.	.
==81|!	==81|!	==81|!
*>D	*	*>D
!	!	!LO:DY:rj
(2DD	.	f
4EEn	.	.
4FF	.	.
=82	=82	=82
!	!	!LO:HP:a
4GG	.	>
4FF)	.	]
2r	.	.
=83	=83	=83
1rF	.	.
=84	=84	=84
1rF	.	.
=85	=85	=85
(2B-	.	.
4A	.	.
8GL<	.	.
8AJ	.	.
=86	=86	=86
4c	.	.
4B-)	.	.
2r	.	.
=87	=87	=87
!LO:TX:t=P:znak pionowy i poziomy w takcie:problem	!	!
1rF	.	.
=88	=88	=88
1rF	.	.
=89	=89	=89
1rF	.	.
=90	=90	=90
(>4AA	.	<
4D	.	.
4AA	.	.
4En	.	.
.	.	[
!!LO:LB:g=original
=91	=91	=91
4G	.	>
8F)	.	]
8r	.	.
2r	.	.
=92	=92	=92
(>4En	.	<
4A	.	.
4E	.	.
4Bn	.	.
.	.	[
=93	=93	=93
4d	.	>
8c)	.	]
8r	.	.
2r	.	.
=94	=94	=94
(>4En	.	<
4A	.	.
4E	.	.
4Bn	.	.
.	.	[
=95	=95	=95
4d	.	>
8c)	.	]
8r	.	.
2r	.	.
=96	=96	=96
(>4BBn	.	<
4En	.	.
4BB	.	.
4F#X	.	.
.	.	[
=97	=97	=97
4A	.	>
8G)	.	]
8r	.	.
2r	.	.
=98	=98	=98
(2F#X	.	<
4G	.	.
4A	.	.
.	.	[
*clefC4	*	*
=99	=99	=99
4c	.	>
8B-)	.	]
8r	.	.
2r	.	.
=100	=100	=100
(>2A	.	<
4B-	.	.
4c	.	[
!!LO:LB:g=original
=101	=101	=101
4e-	.	>
8d)	.	]
8r	.	.
2r	.	.
=102	=102	=102
(>2c#X	.	.
4d	.	.
4en)	.	.
=103	=103	=103
4f	.	.
8gL	.	.
8fJ	.	.
4en	.	.
4d	.	.
=104	=104	=104
!LO:TX:b:Bi:t=dolce.	!	!
2en	.	<
[>2f#X	.	[
=105	=105	=105
4f#X]	.	>
4en	.	]
4d#X	.	.
4dn	.	]
=106	=106	=106
2.c#X	.	.
(4g	.	.
=107	=107	=107
4f#X	.	.
4d^<	.	.
2cn)	.	.
=108	=108	=108
(>1Bn	.	.
=109	=109	=109
2c	.	.
2d-X	.	.
=110	=110	=110
[>1c)	.	.
=111	=111	=111
4c]	.	<
(>4e-X	.	.
4d	.	.
4f	.	[
=112	=112	=112
4e-	.	.
!LO:TX:b:Bi:t=sempre.	!	!
4g-X)	.	.
4r	.	.
[>4A-X	.	.
!!LO:LB:g=original
=113	=113	=113
4A-X]	.	.
(>4d-X	.	.
4A-	.	.
4e-	.	.
=114	=114	=114
!	!	!LO:DY:rj
4A-X	.	p
!LO:N:vis=4	!	!
4f)	.	.
4r	.	.
!LO:N:vis=2	!	!
4r	.	.
*clefF4	*	*
=115	=115	=115
(>4Dn	.	.
4A-X	.	.
4D	.	.
4B-	.	.
=116	=116	=116
4D	.	<
2c-X	.	[>
4B-	.	]
=117	=117	=117
4G-X)	.	]
4r	.	.
2r	.	.
*clefC4	*	*
=118	=118	=118
(4B-	.	.
4e-	.	.
4B-	.	.
4f	.	.
=119	=119	=119
4B-	.	.
4g)	.	.
2r	.	.
*clefF4	*	*
=120	=120	=120
.	.	.
!LO:TX:B:a:t=1	!	!
1r	.	.
=121	=121	=121
(>\4C	.	.
4F	.	.
4C\	.	.
4G	.	.
=122	=122	=122
4C\	.	.
4A-X)	.	.
2r	.	.
!!LO:LB:g=original
=123	=123	=123
(>\4C	.	.
4F	.	.
4C\	.	.
4G	.	.
=124	=124	=124
4C\)	.	<
2A-X	.	[>
4G	.	]
=125	=125	=125
(>4G	.	<
4c	.	.
4G	.	.
4d	.	.
.	.	[
=126	=126	=126
4G	.	.
4en)	.	.
2r	.	.
=127	=127	=127
(>4G	.	<
4c	.	.
4G	.	.
4d	.	[[
=128	=128	=128
4G	.	.
4en)	.	.
2r	.	.
=129	=129	=129
[<1C	.	.
=130	=130	=130
2.C]	.	.
4r	.	.
*clefC4	*	*
=131	=131	=131
(>\4G	.	p
4en	.	.
4G#X\	.	.
4f	.	.
=132	=132	=132
4A	.	.
4f#X)	.	.
2r	.	.
=133	=133	=133
.	.	.
!LO:TX:B:a:t=1	!	!
1r	.	.
=134	=134	=134
!	!	!LO:DY:rj
(>4F#X	.	p>
2d)	.	]
4r	.	.
=135	=135	=135
1rc	.	.
*clefF4	*	*
!!LO:PB:g=original
=136	=136	=136
1rc	.	.
=137	=137	=137
!LO:TX:a:Bi:t=risoluto.	!	!LO:DY:rj
2GG	.	f
4AA	.	.
4BB-	.	.
=138	=138	=138
4C	.	.
4BB-	.	.
2r	.	.
=139	=139	=139
1rF	.	.
=140	=140	=140
1rF	.	.
=141	=141	=141
(2A	.	>
2G	.	.
=142	=142	=142
2F#X)	.	]
2r	.	.
=143	=143	=143
.	.	.
!LO:TX:B:a:t=1	!	!
1r	.	.
=144	=144	=144
2.F	.	.
8.A-XL	.	.
16GJk	.	.
=145	=145	=145
4G	.	.
(4c	.	.
4G)	.	.
4d	.	.
=146	=146	=146
4G	.	<
2e-	.	[>
4d	.	]
=147	=147	=147
(>4.c	.	.
8d	.	.
8e-L	.	.
8d	.	.
8c	.	.
8B-J)	.	.
=148	=148	=148
(>4.G	.	<
16ALL	.	.
16B-JJ	.	[
4F#X)	.	.
4r	.	.
*clefC4	*	*
=149	=149	=149
2B-	.	.
2Bnt	.	.
16qqA/LL	.	.
16qqB/JJ	.	.
!!LO:LB:g=original
=150	=150	=150
4c	.	.
.	.	<
[>4g	.	.
.	.	[
8gL]	.	>
(8f	.	.
8e-	.	.
8dJ	.	]
=151	=151	=151
8fL	.	>
8e-	.	.
8d)	.	]
[>8cJ	.	.
8c]	.	.
4B-^<	.	.
[>8A	.	.
=152	=152	=152
8AL]	.	.
(>8G	.	.
8B-)	.	.
16r	.	.
(>16AJk	.	.
4.G)	.	.
8F#X	.	.
=153	=153	=153
2G	.	.
*clefF4	*	*
(2D/	.	.
=154	=154	=154
2C^<	.	.
2BB-	.	.
=155	=155	=155
2AA	.	.
2GG	.	.
=156	=156	=156
2DD)	.	.
(>2D	.	.
=157	=157	=157
2BBn)	.	.
(>2C	.	<
=158	=158	=158
2D	.	.
2E-)	.	[
=159	=159	=159
(<2FF#X	.	.
2GG)	.	.
!!LO:LB:g=original
=160	=160	=160
(<2C	.	.
2BB-)	.	.
=161	=161	=161
(>\2C	.	.
2D	.	.
=162	=162	=162
4E-)	.	.
4r	.	.
(<2FF#X	.	.
=163	=163	=163
2GG)	.	.
(>\2C#X	.	.
=164	=164	=164
2D)	.	.
(<2DD	.	.
=165	=165	=165
8GG)	.	.
8r	.	.
4r	.	.
(>2D	.	.
=166	=166	=166
8G)	.	.
8r	.	.
4r	.	.
(>2D	.	.
=167	=167	=167
8G)	.	.
8r	.	.
(>4G	.	.
8C)	.	.
8r	.	.
(<4CC	.	.
=168	=168	=168
4DD)	.	.
[>4D	.	.
4D`>]	.	.
(4d	.	.
=169	=169	=169
4G)	.	.
4r	.	.
(>2F^<	.	.
=170	=170	=170
4BB-)	.	.
4r	.	.
(>2F^<	.	.
!!LO:LB:g=original
=171	=171	=171
4BB-)	.	.
4r	.	.
!LO:N:vis=2..	!	!
(<2AA	.	.
=172	=172	=172
4GG)	.	.
4r	.	.
(<2GG#X	.	.
=173	=173	=173
4AA)	.	.
2.AA	.	.
=174	=174	=174
(<1AA	.	.
=175	=175	=175
4D/)	.	.
4r	.	.
2r	.	.
=176	=176	=176
4C#X`<	.	.
2c#^<	.	.
8d	.	.
8r	.	.
=177	=177	=177
4GG	.	.
4r	.	.
2r	.	.
=178	=178	=178
4AA	.	.
2A^<	.	.
(<4AA	.	.
=179	=179	=179
4D)	.	.
8r	.	.
(>8D	.	.
8GL	.	<
8A	.	.
8B-	.	.
8BnJ	.	[
=180	=180	=180
4c)	.	.
8r	.	.
(>8C	.	<
8FL	.	.
8G	.	.
8G#X	.	.
8AJ	.	[
=181	=181	=181
4B-)	.	.
8r	.	.
(>8BB-	.	.
8EnL	.	.
8F	.	.
8G	.	.
8GGJ)	.	.
!!LO:LB:g=original
=182	=182	=182
4AA`<	.	.
4BB-`<	.	.
4GG`<	.	.
(<4AA	.	.
=183	=183	=183
4DD)	.	.
8r	.	.
8DD	.	.
(>16GGLL	.	.
16D	.	.
16B-	.	.
16DJJ)	.	.
(>16GGLL	.	.
16D	.	.
16Bn	.	.
16DJJ)	.	.
=184	=184	=184
(16CLL	.	.
16G	.	.
16enJJ)	.	.
16rE	.	.
8r	.	.
8CC`<	.	.
(<16FFLL	.	.
16C	.	.
16A	.	.
16CJJ)	.	.
(<16FFLL	.	.
16C	.	.
16A	.	.
16CJJ)	.	.
=185	=185	=185
(16BB-LL	.	.
16D	.	.
16d	.	.
16cJJ	.	.
16B-LL	.	.
16A	.	.
16G	.	.
16B-JJ	.	.
16ALL	.	.
16G	.	.
16F	.	.
16EnJJ	.	.
8D)	.	.
8GG#X`<	.	.
=186	=186	=186
1AA^<	.	.
!!LO:LB:g=original
=187	=187	=187
!	!	!LO:DY:rj
(>4D	.	p<
4F	.	.
4G	.	.
4A	.	.
.	.	[
=188	=188	=188
4D)	.	.
!	!	!LO:HP:a
(<4FF	.	<
4GG	.	.
4AA	.	.
=189	=189	=189
4BBn	.	.
4C#X	.	.
4D/	.	.
4BB-X)	.	[
=190	=190	=190
(<4GG	.	.
4GG#X	.	.
4AA)	.	.
(>4A	.	.
=191	=191	=191
8.DL)	.	.
16EnJk	.	.
(>4F	.	.
4G	.	.
4A	.	.
=192	=192	=192
4D)	.	.
(4FF	.	.
4GG	.	<
4AA	.	.
=193	=193	=193
4BBn	.	.
.	.	[
4C#X	.	.
8DL	.	.
8Cn	.	.
8BB-X	.	.
8AAJ)	.	.
=194	=194	=194
4GG	.	.
(<4GG#X	.	.
4AA)	.	.
4A	.	.
=195	=195	=195
(>4B-	.	<
4d	.	.
.	.	[>
4e-	.	.
8cL	.	]
8AJ	.	.
!!LO:LB:g=original
=196	=196	=196
4F)	.	.
!LO:TX:a:Bi:t=dolce.	!	!
4B-	.	<
4F	.	.
4c	.	[
=197	=197	=197
4F	.	.
4d	.	>
4e-	.	]
8cL	.	.
8AJ	.	.
=198	=198	=198
(>4F	.	.
4B-	.	.
4F	.	.
4c	.	.
=199	=199	=199
4d)	.	.
(>4B-	.	.
4D	.	.
4G	.	.
=200	=200	=200
4F	.	.
4F#X	.	.
4G	.	.
4AA)	.	.
=201	=201	=201
4D	.	<
2D	.	[>
(>4G#X	.	]
=202	=202	=202
4A)	.	.
2B-	.	.
(>4C	.	.
=203	=203	=203
4F)	.	.
2F^<	.	.
(>4F	.	.
=204	=204	=204
4En)	.	.
2A^<	.	.
(<4AA	.	.
=205	=205	=205
4D/)	.	.
2G	.	.
(<4GG	.	.
=206	=206	=206
4C)	.	.
(>4F	.	.
4C\)	.	.
4En	.	.
!!LO:LB:g=original
=207	=207	=207
[>1E-X	.	ff
=208	=208	=208
1E-]	.	.
=209	=209	=209
1D	.	.
=210	=210	=210
(<1D-X	.	.
=211	=211	=211
2C#X)	.	.
2r	.	.
=212	=212	=212
.	.	.
!LO:TX:B:a:t=1	!	!
1r	.	.
=213	=213	=213
8D	.	.
*clefC4	*	*
4d^<	.	.
(>8f#X	.	.
8g)	.	.
4d^<	.	.
(>8f#	.	.
=214	=214	=214
8g)	.	.
4d^<	.	.
8f#X	.	.
8gL	.	>
8e-X	.	.
8d	.	.
8cJ	.	]
=215	=215	=215
8d`>	.	.
8r	.	.
4r	.	.
2r	.	.
=216	=216	=216
.	.	.
!LO:TX:B:a:t=1	!	!
1r	.	.
*clefF4	*	*
=217	=217	=217
!LO:TX:t=P:note-head-side tuplet number:problem	!	!LO:DY:rj
(>12GGL	.	f
12D	.	.
12B-J)	.	.
!LO:TX:t=P:note-head-side tuplet number:problem	!	!
(>12B-L	.	.
12D	.	.
12GGJ)	.	.
!LO:TX:t=P:note-head-side tuplet number:problem	!	!
(>12GGL	.	.
12D	.	.
12B-J)	.	.
!LO:TX:t=P:note-head-side tuplet number:problem	!	!
(>12B-L	.	.
12D	.	.
12GGJ)	.	.
!!LO:LB:g=original
=218	=218	=218
!LO:TX:t=P:note-head-side tuplet number:problem	!	!
(>12GGL	.	.
12D	.	.
12B-J)	.	.
!LO:TX:t=P:note-head-side tuplet number:problem	!	!
(>12B-L	.	.
12D	.	.
12GGJ)	.	.
!LO:TX:t=P:note-head-side tuplet number:problem	!	!
(>12GGL	.	.
12D	.	.
12B-J)	.	.
!LO:TX:t=P:note-head-side tuplet number:problem	!	!
(>12B-L	.	.
12D	.	.
12GGJ)	.	.
=219	=219	=219
*Xtuplet	*	*
(>12DDL<	.	.
12C	.	.
12F#XJ)	.	.
(>12F#L<	.	.
12C	.	.
12DDJ)	.	.
(>12DDL<	.	.
12C	.	.
12F#J)	.	.
(>12F#L<	.	.
12C	.	.
12DDJ)	.	.
=220	=220	=220
(>12DDL<	.	.
12C	.	.
12F#XJ)	.	.
(>12F#L<	.	.
12C	.	.
12DDJ)	.	.
(>12DDL<	.	.
12C	.	.
12F#J)	.	.
(>12F#L<	.	.
12C	.	.
12DDJ)	.	.
=221	=221	=221
!	!	!LO:DY:rj
(>12GGL	.	p
12D	.	.
12B-J)	.	.
(>12B-L	.	.
12D	.	.
12GGJ)	.	.
(>12GGL	.	.
12D	.	.
12B-J)	.	.
(>12B-L	.	.
12D	.	.
12GGJ)	.	.
!!LO:LB:g=original
=222	=222	=222
(>12GGL	.	.
12D	.	.
12B-J)	.	.
(>12B-L	.	.
12D	.	.
12GGJ)	.	.
(>12GGL	.	.
12D	.	.
12B-J)	.	.
(>12B-L	.	.
12D	.	.
12GGJ)	.	.
=223	=223	=223
(>12DDL<	.	.
12C	.	.
12F#XJ)	.	.
(>12F#L<	.	.
12C	.	.
12DDJ)	.	.
(>12DDL<	.	.
12C	.	.
12F#J)	.	.
(>12F#L<	.	.
12C	.	.
12DDJ)	.	.
=224	=224	=224
(>12DDL<	.	.
12C	.	.
12F#XJ)	.	.
(>12F#L<	.	.
12C	.	.
12DDJ)	.	.
(>12DDL<	.	.
12C	.	.
12F#J)	.	.
(>12F#L<	.	.
12C	.	.
12DDJ)	.	.
=225	=225	=225
(>12GGL	.	.
12D	.	.
12B-J)	.	.
(>12B-L	.	.
12D	.	.
12GGJ)	.	.
(>12GGL	.	.
12D	.	.
12B-J)	.	.
(>12B-L	.	.
12D	.	.
12GGJ)	.	.
!!LO:LB:g=original
=226	=226	=226
(>12GGL	.	.
12D	.	.
12BnJ)	.	.
(>12BL	.	.
12D	.	.
12GGJ)	.	.
(>12GGL	.	.
12D	.	.
12BJ)	.	.
(>12BL	.	.
12D	.	.
12GGJ)	.	.
=227	=227	=227
(>12GG 12CCL	.	.
12E-	.	.
12cJ)	.	.
(>12cL	.	.
12E-	.	.
12GGJ)	.	.
(>12GG 12CCL	.	.
12E-	.	.
12cJ)	.	.
(>12cL	.	.
12E-	.	.
12GGJ)	.	.
=228	=228	=228
(>12GG 12CCL	.	.
12E-	.	.
12cJ)	.	.
(>12cL<	.	.
12E-	.	.
12GGJ)	.	.
(>12GG 12CCL<	.	.
12D	.	.
12cJ)	.	.
(>12cL<	.	.
12D	.	.
12GGJ)	.	.
=229	=229	=229
!	!	!LO:DY:rj
(>12GGL	.	f
12D	.	.
12B-J)	.	.
(>12B-L	.	.
12D	.	.
12GGJ)	.	.
(>12GGL	.	.
12D	.	.
12B-J)	.	.
(>12B-L	.	.
12D	.	.
12GGJ)	.	.
!!LO:LB:g=original
=230	=230	=230
(>12GGL	.	.
12D	.	.
12B-J)	.	.
(>12B-L	.	.
12D	.	.
12GGJ)	.	.
(>12GGL	.	.
12D	.	.
12B-J)	.	.
(>12B-L	.	.
12D	.	.
12GGJ)	.	.
=231	=231	=231
(>12DDL<	.	.
12C	.	.
12F#XJ)	.	.
(>12F#L<	.	.
12C	.	.
12DDJ)	.	.
(>12DDL<	.	.
12C	.	.
12F#J)	.	.
(>12F#L<	.	.
12C	.	.
12DDJ)	.	.
=232	=232	=232
(>12DDL<	.	.
12C	.	.
12F#XJ)	.	.
(>12F#L<	.	.
12C	.	.
12DDJ)	.	.
(>12DDL<	.	.
12C	.	.
12F#J)	.	.
(>12F#L<	.	.
12C	.	.
12DDJ)	.	.
=233	=233	=233
!	!	!LO:DY:rj
(>12GGL	.	pp
12D	.	.
12B-J)	.	.
(>12B-L	.	.
12D	.	.
12GGJ)	.	.
(>12GGL	.	.
12D	.	.
12B-J)	.	.
(>12B-L	.	.
12D	.	.
12GGJ)	.	.
!!LO:LB:g=original
=234	=234	=234
(>12GGL	.	.
12D	.	.
12B-J)	.	.
(>12B-L	.	.
12D	.	.
12GGJ)	.	.
(>12GGL	.	.
12D	.	.
12B-J)	.	.
(>12B-L	.	.
12D	.	.
12GGJ)	.	.
=235	=235	=235
(>12DDL<	.	.
12C	.	.
12F#XJ)	.	.
(>12F#L<	.	.
12C	.	.
12DDJ)	.	.
(>12DDL<	.	.
12C	.	.
12F#J)	.	.
(>12F#L<	.	.
12C	.	.
12DDJ)	.	.
=236	=236	=236
(>12DDL<	.	.
12C	.	.
12F#XJ)	.	.
(>12F#L<	.	.
12C	.	.
12DDJ)	.	.
(>12DDL<	.	.
12C	.	.
12F#J)	.	.
(>12F#L<	.	.
12C	.	.
12DDJ)	.	.
=237	=237	=237
(>12GGL	.	.
12D	.	<
12B-J)	.	.
(>12B-L	.	.
12D	.	.
12GGJ)	.	.
(>12GGL	.	.
12D	.	.
12B-J)	.	.
(>12B-L	.	.
12D	.	.
12GGJ)	.	.
!!LO:LB:g=original
=238	=238	=238
(>12GGL	.	.
12D	.	.
12BnJ)	.	.
(>12BL	.	.
12D	.	.
12GGJ)	.	.
(>12GGL	.	.
12D	.	.
12BJ)	.	.
(>12BL	.	.
12D	.	.
12GGJ)	.	.
=239	=239	=239
4c\ 4E-\ 4GG\ 4CC\	.	.
4r	.	.
2r	.	.
=240	=240	=240
!LO:TX:a:Bi:t=Pizz.	!	!
4DD`<	.	.
4D`>	.	.
4D`>	.	.
4r	.	.
=241	=241	=241
!	!	!LO:DY:rj
!LO:TX:a:Bi:t=Arco.	!	!
2B- 2D 2GG	.	f
2BB- 2GG	0 4	.
=242	=242	=242
4D`< 4GG`<	0 0	.
4D`< 4GG`<	.	.
2r	.	.
=243	=243	=243
(>2B-	.	pp
2F#X	.	.
=244	=244	=244
2.G)	.	.
4r	.	.
=245	=245	=245
*	*	*^
!LO:TX:t=P:cres. na górze:problem	!	!	!LO:HP:a
[>1D [<1GG	.	<	<
.	.	.	.
=246	=246	=246	=246
1D_ 1GG_	.	[	.
.	.	.	.
*	*	*v	*v
=247	=247	=247
2.D] 2.GG]	.	ff
4D`>	.	.
=248	=248	=248
4GG	.	.
4r	.	.
2r	.	.
==	==	==
*-	*-	*-
!!!system-decoration: s1,s2{(s3,s4)}
!!!RDF**kern: > = above
!!!RDF**kern: < = below
!!title: @{OTL}; @{OPS} @{ONM} publisher: @{PPR}
!!!RDF**kern: N = linked
!!!RDF**dynam: > = "dim.", fontstyle="bold-italic"
!!!RDF**dynam: < = "cres.", fontstyle="bold-italic"
!!!RDF**kern: i = editorial accidental
!!!ENC: Emilia Ziętek
!!!END: 2019-10-23
!!!EED: Mateusz Mrugas
!!!EST: revision finished 2019-10-30
!!!rism-genre: Trio
!!!rism-key: G minor
!!!rism-opus: op.  8
!!!rism-title: Trio in G minor op.  8
!!!rism-permalink: https://opac.rism.info/search?id=1001002848&View=rism
